Simply-Cyan-Circles/scalable/apps/atom.svg

<svg xmlns="http://www.w3.org/2000/svg" width="48" height="48" viewBox="0 0 12.7 12.7"><path fill="#5beedc" d="M6.344.073a6.29 6.29 0 0 0-6.29 6.29 6.29 6.29 0 0 0 6.29 6.288 6.29 6.29 0 0 0 6.29-6.289 6.29 6.29 0 0 0-6.29-6.29zm-.018.936a5.407 5.407 0 0 1 5.407 5.407 5.407 5.407 0 0 1-5.407 5.407A5.407 5.407 0 0 1 .92 6.416 5.407 5.407 0 0 1 6.326 1.01zm.023.213c-.26 0-.643.133-1.013.739H5.26a.602.602 0 0 0-.38 1.071 7.903 7.903 0 0 0-.125.458c-1.353-.45-2.408-.42-2.769.164-.286.463-.073 1.178.604 2.005.197.243.41.475.636.693a7.82 7.82 0 0 0-.636.686c-.677.833-.89 1.547-.604 2.004.138.225.45.475 1.143.475h.173a.602.602 0 0 0 1.152-.213c.096-.027.193-.057.291-.09.336 1.383.912 2.264 1.603 2.264.69 0 1.265-.876 1.6-2.256a5.338 5.338 0 0 0 1.603.3c.547 0 .96-.155 1.159-.476.23-.364.14-.893-.25-1.518a.599.599 0 0 0 .122-.357.603.603 0 0 0-.847-.547 8.827 8.827 0 0 0-.263-.266c.226-.215.439-.445.637-.685.676-.834.89-1.548.603-2.006-.364-.583-1.41-.614-2.762-.182C7.614 2.1 7.034 1.223 6.35 1.223zm.002.361c.456 0 .944.762 1.247 2.016-.427.164-.844.353-1.249.566-.404-.21-.82-.395-1.247-.556.036-.157.077-.307.12-.449h.04a.603.603 0 0 0 .409-1.047c.217-.343.454-.53.68-.53zm3.238 1.965c.408.002.692.104.812.298.193.312-.022.911-.576 1.59-.193.233-.4.455-.62.664-.313-.28-.641-.545-.982-.79-.034-.49-.097-.977-.191-1.46.617-.207 1.149-.305 1.557-.302zm-6.475.005c.41 0 .942.095 1.552.297a11.83 11.83 0 0 0-.187 1.456c-.342.248-.672.513-.987.795a7.536 7.536 0 0 1-.62-.662c-.546-.684-.768-1.276-.575-1.59.12-.193.407-.294.817-.296zm4.562.413c.066.331.119.689.155 1.069a12.35 12.35 0 0 0-.477-.31 16.396 16.396 0 0 0-.61-.356c.324-.157.635-.292.932-.403zm-2.654.003c.297.111.609.247.932.403a14.458 14.458 0 0 0-1.087.666c.036-.376.09-.731.155-1.069zm1.327.602a13.034 13.034 0 0 1 1.52.933 13.887 13.887 0 0 1-.002 1.692v.001c-.228.16-.462.317-.707.469-.244.151-.54.324-.811.463a13.05 13.05 0 0 1-1.52-.933 13.835 13.835 0 0 1 .002-1.692 13.56 13.56 0 0 1 1.518-.933zm0 .931a.848.848 0 1 0 0 1.697.848.848 0 0 0 0-1.697zm-1.898.28c0 .182-.013.377-.013.568 0 .191.004.381.011.567a12.291 12.291 0 0 1-.689-.567c.216-.191.447-.38.691-.568zm3.798.002c.244.186.47.384.688.566-.213.19-.443.38-.688.567a14.416 14.416 0 0 0 0-1.133zm-4.758.819c.314.28.641.544.982.79.033.49.097.977.191 1.459-.1.04-.2.07-.3.098a.603.603 0 0 0-1.105.203c-.488.024-.83-.08-.964-.295-.193-.312.022-.912.576-1.59.193-.234.4-.456.62-.665zm5.715.004c.09.086.175.172.257.257a.601.601 0 0 0-.09.31c0 .334.271.605.606.605a.585.585 0 0 0 .182-.033c.3.478.38.872.24 1.11-.239.389-1.144.403-2.37 0 .095-.481.158-.968.192-1.458.34-.246.67-.51.983-.791zm-4.34 1.058c.158.106.317.209.479.31.204.12.406.242.607.364-.316.153-.627.286-.93.401a11.175 11.175 0 0 1-.155-1.075zm2.965.001c-.036.38-.09.737-.155 1.065v.002a10.786 10.786 0 0 1-.931-.403c.204-.113.406-.23.609-.354.164-.1.322-.204.477-.31zm-1.482.872c.406.21.824.396 1.251.557-.306 1.265-.795 2.02-1.251 2.02-.458 0-.946-.763-1.249-2.023.427-.16.844-.346 1.249-.554z"/></svg>

<?xml version="1.0" encoding="UTF-8" standalone="no"?>
<svg
   xmlns:dc="http://purl.org/dc/elements/1.1/"
   xmlns:cc="http://creativecommons.org/ns#"
   xmlns:rdf="http://www.w3.org/1999/02/22-rdf-syntax-ns#"
   xmlns:svg="http://www.w3.org/2000/svg"
   xmlns="http://www.w3.org/2000/svg"
   xmlns:sodipodi="http://sodipodi.sourceforge.net/DTD/sodipodi-0.dtd"
   xmlns:inkscape="http://www.inkscape.org/namespaces/inkscape"
   width="48"
   height="48"
   viewBox="0 0 12.7 12.7"
   version="1.1"
   id="svg4"
   sodipodi:docname="atom.svg"
   inkscape:version="0.92.4 (5da689c313, 2019-01-14)">
  <metadata
     id="metadata10">
    <rdf:RDF>
      <cc:Work
         rdf:about="">
        <dc:format>image/svg+xml</dc:format>
        <dc:type
           rdf:resource="http://purl.org/dc/dcmitype/StillImage" />
        <dc:title></dc:title>
      </cc:Work>
    </rdf:RDF>
  </metadata>
  <defs
     id="defs8" />
  <sodipodi:namedview
     pagecolor="#ffffff"
     bordercolor="#666666"
     borderopacity="1"
     objecttolerance="10"
     gridtolerance="10"
     guidetolerance="10"
     inkscape:pageopacity="0"
     inkscape:pageshadow="2"
     inkscape:window-width="1087"
     inkscape:window-height="480"
     id="namedview6"
     showgrid="false"
     inkscape:zoom="4.9166667"
     inkscape:cx="2.1355932"
     inkscape:cy="24"
     inkscape:window-x="0"
     inkscape:window-y="25"
     inkscape:window-maximized="0"
     inkscape:current-layer="svg4" />
  <path
     d="m 6.344,0.073 a 6.29,6.29 0 0 0 -6.29,6.29 6.29,6.29 0 0 0 6.29,6.288 6.29,6.29 0 0 0 6.29,-6.289 6.29,6.29 0 0 0 -6.29,-6.29 z M 6.326,1.009 A 5.407,5.407 0 0 1 11.733,6.416 5.407,5.407 0 0 1 6.326,11.823 5.407,5.407 0 0 1 0.92,6.416 5.407,5.407 0 0 1 6.326,1.01 Z m 0.023,0.213 c -0.26,0 -0.643,0.133 -1.013,0.739 H 5.26 A 0.602,0.602 0 0 0 4.88,3.032 7.903,7.903 0 0 0 4.755,3.49 C 3.402,3.04 2.347,3.07 1.986,3.654 1.7,4.117 1.913,4.832 2.59,5.659 2.787,5.902 3,6.134 3.226,6.352 A 7.82,7.82 0 0 0 2.59,7.038 C 1.913,7.871 1.7,8.585 1.986,9.042 2.124,9.267 2.436,9.517 3.129,9.517 H 3.302 A 0.602,0.602 0 0 0 4.454,9.304 C 4.55,9.277 4.647,9.247 4.745,9.214 c 0.336,1.383 0.912,2.264 1.603,2.264 0.69,0 1.265,-0.876 1.6,-2.256 a 5.338,5.338 0 0 0 1.603,0.3 c 0.547,0 0.96,-0.155 1.159,-0.476 0.23,-0.364 0.14,-0.893 -0.25,-1.518 A 0.599,0.599 0 0 0 10.582,7.171 0.603,0.603 0 0 0 9.735,6.624 8.827,8.827 0 0 0 9.472,6.358 C 9.698,6.143 9.911,5.913 10.109,5.673 10.785,4.839 10.999,4.125 10.712,3.667 10.348,3.084 9.302,3.053 7.95,3.485 7.614,2.1 7.034,1.223 6.35,1.223 Z m 0.002,0.361 c 0.456,0 0.944,0.762 1.247,2.016 C 7.171,3.763 6.754,3.952 6.349,4.165 5.945,3.955 5.529,3.77 5.102,3.609 5.138,3.452 5.179,3.302 5.222,3.16 h 0.04 A 0.603,0.603 0 0 0 5.671,2.113 C 5.888,1.77 6.125,1.583 6.351,1.583 Z M 9.589,3.548 C 9.997,3.55 10.281,3.652 10.401,3.846 10.594,4.158 10.379,4.757 9.825,5.436 9.632,5.669 9.425,5.891 9.205,6.1 8.892,5.82 8.564,5.555 8.223,5.31 8.189,4.82 8.126,4.333 8.032,3.85 8.649,3.643 9.181,3.545 9.589,3.548 Z M 3.114,3.553 c 0.41,0 0.942,0.095 1.552,0.297 A 11.83,11.83 0 0 0 4.479,5.306 C 4.137,5.554 3.807,5.819 3.492,6.101 A 7.536,7.536 0 0 1 2.872,5.439 C 2.326,4.755 2.104,4.163 2.297,3.849 2.417,3.656 2.704,3.555 3.114,3.553 Z M 7.676,3.966 C 7.742,4.297 7.795,4.655 7.831,5.035 A 12.35,12.35 0 0 0 7.354,4.725 16.396,16.396 0 0 0 6.744,4.369 C 7.068,4.212 7.379,4.077 7.676,3.966 Z M 5.022,3.969 C 5.319,4.08 5.631,4.216 5.954,4.372 A 14.458,14.458 0 0 0 4.867,5.038 C 4.903,4.662 4.957,4.307 5.022,3.969 Z M 6.349,4.571 A 13.034,13.034 0 0 1 7.869,5.504 13.887,13.887 0 0 1 7.867,7.196 V 7.197 C 7.639,7.357 7.405,7.514 7.16,7.666 6.916,7.817 6.62,7.99 6.349,8.129 A 13.05,13.05 0 0 1 4.829,7.196 13.835,13.835 0 0 1 4.831,5.504 13.56,13.56 0 0 1 6.349,4.571 Z m 0,0.931 a 0.8485,0.8485 0 1 0 0,1.697 0.8485,0.8485 0 0 0 0,-1.697 z m -1.898,0.28 c 0,0.182 -0.013,0.377 -0.013,0.568 0,0.191 0.004,0.381 0.011,0.567 A 12.291,12.291 0 0 1 3.76,6.35 C 3.976,6.159 4.207,5.97 4.451,5.782 Z M 8.249,5.784 C 8.493,5.97 8.719,6.168 8.937,6.35 8.724,6.54 8.494,6.73 8.249,6.917 a 14.416,14.416 0 0 0 0,-1.133 z M 3.491,6.603 c 0.314,0.28 0.641,0.544 0.982,0.79 0.033,0.49 0.097,0.977 0.191,1.459 -0.1,0.04 -0.2,0.07 -0.3,0.098 A 0.603,0.603 0 0 0 3.259,9.153 C 2.771,9.177 2.429,9.073 2.295,8.858 2.102,8.546 2.317,7.946 2.871,7.268 3.064,7.034 3.271,6.812 3.491,6.603 Z m 5.715,0.004 c 0.09,0.086 0.175,0.172 0.257,0.257 a 0.601,0.601 0 0 0 -0.09,0.31 c 0,0.334 0.271,0.605 0.606,0.605 a 0.585,0.585 0 0 0 0.182,-0.033 c 0.3,0.478 0.38,0.872 0.24,1.11 -0.239,0.389 -1.144,0.403 -2.37,0 C 8.126,8.375 8.189,7.888 8.223,7.398 8.563,7.152 8.893,6.888 9.206,6.607 Z M 4.866,7.665 C 5.024,7.771 5.183,7.874 5.345,7.975 5.549,8.095 5.751,8.217 5.952,8.339 5.636,8.492 5.325,8.625 5.022,8.74 A 11.175,11.175 0 0 1 4.867,7.665 Z M 7.831,7.666 C 7.795,8.046 7.741,8.403 7.676,8.731 V 8.733 A 10.786,10.786 0 0 1 6.745,8.33 C 6.949,8.217 7.151,8.1 7.354,7.976 7.518,7.876 7.676,7.772 7.831,7.666 Z M 6.349,8.538 C 6.755,8.748 7.173,8.934 7.6,9.095 7.294,10.36 6.805,11.115 6.349,11.115 5.891,11.115 5.403,10.352 5.1,9.092 5.527,8.932 5.944,8.746 6.349,8.538 Z"
     id="path2"
     inkscape:connector-curvature="0"
     style="fill:#5beedc" />
</svg>
